X:626
T:The Cuil Aodha jig
R:Jig
S:Wind Among the Reeds, Tommy Keane & Jacqueline McCarthy
Z:Naka Ishii
Z:Transcription:Naka Ishii(?), Henrik Norbeck(?),arrangement, chords:Mike Long
M:6/8
L:1/8
K:G
g|:\
"G"gfd "D"cAd|"G"G2G B2c|"G"dcB "C"cAG|"D"FED cBA|\
"G"G2G GFG|"D"~A3 fga|
"C"gfd "D"cAd|[1 "G"GAG G2g:|[2 "G"GAG GBc\
|:"G"d2g {a}gfg|"D"ade fga|"G"gfd "C"c2d|
"D"cAG FGA|\
"G"G2g gfg|"D"ade fga|"C"gfd "D"cAd|[1 "G"GAG GBc:|[2 "G"GAG G2g|]
